icons/home-outline.svg

<svg width="22" height="22" viewBox="0 0 22 22" fill="none" xmlns="http://www.w3.org/2000/svg">
<path d="M11.4207 1.52225C11.2988 1.42714 11.1485 1.37549 10.9938 1.37549C10.8391 1.37549 10.6889 1.42714 10.5669 1.52225L0.6875 9.22569L1.54206 10.3064L2.75 9.36456V17.8751C2.75073 18.2396 2.89583 18.5889 3.15353 18.8466C3.41124 19.1043 3.76055 19.2494 4.125 19.2501H17.875C18.2394 19.2494 18.5888 19.1043 18.8465 18.8466C19.1042 18.5889 19.2493 18.2396 19.25 17.8751V9.37075L20.4579 10.3126L21.3125 9.23187L11.4207 1.52225ZM12.375 17.8751H9.625V12.3751H12.375V17.8751ZM13.75 17.8751V12.3751C13.7496 12.0106 13.6047 11.661 13.3469 11.4033C13.0891 11.1455 12.7396 11.0005 12.375 11.0001H9.625C9.26044 11.0005 8.91091 11.1455 8.65313 11.4033C8.39535 11.661 8.25036 12.0106 8.25 12.3751V17.8751H4.125V8.29275L11 2.93712L17.875 8.29962V17.8751H13.75Z" fill="#212338"/>
</svg>

<svg width="24" height="24" fill="none" xmlns="http://www.w3.org/2000/svg"><path d="M11.42 1.522a.694.694 0 0 0-.853 0L.687 9.226l.855 1.08 1.208-.941v8.51a1.378 1.378 0 0 0 1.375 1.375h13.75a1.378 1.378 0 0 0 1.375-1.375V9.371l1.208.942.855-1.081-9.892-7.71Zm.955 16.353h-2.75v-5.5h2.75v5.5Zm1.375 0v-5.5A1.376 1.376 0 0 0 12.375 11h-2.75a1.377 1.377 0 0 0-1.375 1.375v5.5H4.125V8.293L11 2.937 17.875 8.3v9.575H13.75Z" fill="#212338"/></svg>
